X: 15216
T: Ginley's
R: reel
M: 4/4
K: Gmajor
|:FGAF BG~G2|GBAc BG~G2|B2df eBcA|EAAG FADF|
G2BG DGBG|GABc d2fg|afge defd|1 cAFA ~G3z:|2 cAF2 ~g3a||
|:b2ef gfed|BGGB ABG2|Beef ~g3a|b2af gfed|
~b3f gefd|eBBA Bcd2|~g3a gbaf|1 gedb ~g3a:|2 gedB g2z2||

